svgs/android-filled.svg

<svg width="14" height="14" viewBox="0 0 14 14" fill="none" xmlns="http://www.w3.org/2000/svg">
<path fill-rule="evenodd" clip-rule="evenodd" d="M1.84995 4.3905C1.37895 4.3965 0.999952 4.7805 0.999952 5.2505V8.6305C0.996952 8.8595 1.08495 9.0785 1.24495 9.2425C1.40395 9.4055 1.62195 9.4975 1.84995 9.5005C2.07795 9.4975 2.29595 9.4055 2.45495 9.2425C2.61495 9.0785 2.70295 8.8595 2.69995 8.6305V5.2505C2.70295 5.0235 2.61495 4.8025 2.45495 4.6395C2.29595 4.4765 2.07795 4.3835 1.84995 4.3805V4.3905ZM12.14 4.3905C11.912 4.3935 11.694 4.4875 11.535 4.6505C11.375 4.8135 11.287 5.0335 11.29 5.2605V8.6305C11.29 9.1035 11.673 9.4865 12.144 9.4865C12.617 9.4865 13 9.1035 13 8.6305V5.2505C13.003 5.0235 12.915 4.8025 12.755 4.6395C12.596 4.4765 12.378 4.3835 12.15 4.3805L12.14 4.3905ZM3.20995 10.5905C3.20995 10.7675 3.28095 10.9375 3.40695 11.0615C3.53295 11.1855 3.70295 11.2535 3.87995 11.2505H4.63995V13.1305C4.63995 13.6035 5.02295 13.9865 5.49495 13.9865C5.96695 13.9865 6.34995 13.6035 6.34995 13.1305V11.2505H7.67995V13.1305C7.67995 13.6035 8.06195 13.9865 8.53495 13.9865C9.00695 13.9865 9.38995 13.6035 9.38995 13.1305V11.2505H10.15C10.517 11.2505 10.814 10.9565 10.82 10.5905V4.4115H3.21995V10.5905H3.20995ZM8.79995 1.2105L9.49995 0.2105C9.54795 0.1615 9.54795 0.0805 9.49995 0.0315C9.45095 -0.0105 9.37895 -0.0105 9.32995 0.0315L8.57995 1.1205C7.56595 0.7295 6.44295 0.7295 5.42995 1.1205L4.69995 0.0615C4.65095 0.0185 4.57895 0.0185 4.52995 0.0615C4.49295 0.0975 4.48095 0.1525 4.49995 0.2015L5.19995 1.2015C4.10495 1.6605 3.34095 2.6715 3.19995 3.8515H10.8C10.656 2.6725 9.89295 1.6615 8.79995 1.2015V1.2105ZM5.39995 2.8115C5.16795 2.8115 4.97995 2.6225 4.97995 2.3905C4.97995 2.1595 5.16795 1.9705 5.39995 1.9705C5.63195 1.9705 5.81995 2.1595 5.81995 2.3905C5.81995 2.6225 5.63195 2.8115 5.39995 2.8115ZM8.65995 2.8115C8.42795 2.8115 8.23995 2.6225 8.23995 2.3905C8.23995 2.1595 8.42795 1.9705 8.65995 1.9705C8.89195 1.9705 9.07995 2.1595 9.07995 2.3905C9.07995 2.6225 8.89195 2.8115 8.65995 2.8115Z" fill="#242E59"/>
</svg>

<svg xmlns="http://www.w3.org/2000/svg" viewBox="0 0 14 14"><defs><style>.cls-1{fill:none;}.cls-2{fill:#323333;}</style></defs><title>android</title><g id="图层_2" data-name="图层 2"><g id="图层_1-2" data-name="图层 1"><g id="android"><path class="cls-2" d="M8.66,2.81a.42.42,0,1,1,.42-.42.42.42,0,0,1-.42.42m-3.26,0a.42.42,0,1,1,.42-.42.42.42,0,0,1-.42.42m3.4-1.6.7-1A.13.13,0,0,0,9.5,0a.14.14,0,0,0-.17,0L8.58,1.12a4.39,4.39,0,0,0-3.15,0L4.7.06a.14.14,0,0,0-.17,0A.12.12,0,0,0,4.5.2l.7,1a3.31,3.31,0,0,0-2,2.65h7.6a3.31,3.31,0,0,0-2-2.65ZM3.21,10.59a.63.63,0,0,0,.2.47.63.63,0,0,0,.47.19h.76v1.88a.86.86,0,1,0,1.71,0V11.25H7.68v1.88a.86.86,0,1,0,1.71,0V11.25h.76a.67.67,0,0,0,.67-.66V4.41H3.22v6.18Zm8.93-6.2a.87.87,0,0,0-.61.26.9.9,0,0,0-.24.61V8.63a.86.86,0,1,0,1.71,0V5.25a.9.9,0,0,0-.24-.61.87.87,0,0,0-.61-.26Zm-10.29,0A.86.86,0,0,0,1,5.25V8.63a.86.86,0,0,0,.25.61.79.79,0,0,0,.6.26.79.79,0,0,0,.6-.26.82.82,0,0,0,.25-.61V5.25a.82.82,0,0,0-.25-.61.83.83,0,0,0-.6-.26Z"/></g></g></g></svg>
